X:13304
%379
T:Aires de Pontevedra
S:Leeds Session
R:Other
O:Spain
M:C
A:Galicia
K:Am
A,B,|"C"CB,CA, "G"B,G,A,B,|"C"CB,CB, "G"G,2A,B,| \
"C"CB,CA, "G"B,G,A,B,| \
M:6/4
"C"CB,CA, "G"G,6DE| \
M:2/4
L:1/8
"F"F2 FA|GF ED|CB, CD|"D"C2 C>A| \
GF ED| CB, CD|"G"B,2 B,>A|
